**kern	**kern	**dynam
*part1	*part1	*part1
*staff2	*staff1	*
*I"Piano	*	*
*clefF4	*clefG2	*
*k[f#c#g#]	*k[f#c#g#]	*
=1	=1	=1
8.AL 8.cn	8.aL 8.ccn	.
!	!LO:TX:b:i:t=cresc.	!
16AJk 16c	16aJk 16cc	.
8BL 8d	8bL 8dd	.
8EJ 8B	8eJ 8b	.
=	=	=
8.BL 8.d	8.bL 8.dd	.
16BJk 16d	16bJk 16dd	.
8cnL 8e	8ccnL 8ee	.
8AJ 8c	8aJ 8cc	.
=	=	=
4cn 4e	8.ccnL 8.ee	.
.	16ccJk 16ee	.
*^	*	*
(8DDL	[4DD	(8ddL 8ffn	f
8FFnJ	.	8b-XJ 8dd	.
=	=	=	=
8BB-XL	4DD]	8fn 8b-X	.
[8D	.	4d 4f	.
8D]	8DDL	.	.
8D#XJ)	8DD#XJ	8cn) 8f#X	.
=	=	=	=
4E 4B	4EE 4BBn	(4e	p
8EL 8B	8EEL 8BB	4e	.
8EJ 8B	8EEJ 8BB	.	.
=	=	=	=
8AL 8c#X	8AAL 8C#X	4e	.
8EJ 8B	8EEJ 8BB	.	.
4E 4A	4CC# 4AA	4e)	.
=	=	=	=
4E 4B	4EE 4BB	4e	.
*v	*v	*^	*
!	!	!	!LO:DY:a
8AAL 8C#	8ryy	8AL 8c#	<
8FF#J 8AA 8D	8f#	8AJ 8d	.
*	*v	*v	*
=	=	=
2CC# 2AA 2E	2Gn 2A 2e 2a	[[
=	=	=
*-	*-	*-
!!!system-decoration: {(s1,s2)}
